flaticon/design/constraint.svg

<svg xmlns="http://www.w3.org/2000/svg" width="32" height="32" viewBox="0 0 24 24">
    <path d="M0 8L2.398438 8 2.398438 2.398438 8 2.398438 8 0 0 0zM.800781.800781L7.199219.800781 7.199219 1.601562 1.601562 1.601562 1.601562 7.199219.800781 7.199219zM16 0L16 2.398438 21.601562 2.398438 21.601562 8 24 8 24 0zM23.199219 7.199219L22.398438 7.199219 22.398438 1.601562 16.800781 1.601562 16.800781.800781 23.199219.800781zM21.601562 21.601562L16 21.601562 16 24 24 24 24 16 21.601562 16zM22.398438 16.800781L23.199219 16.800781 23.199219 23.199219 16.800781 23.199219 16.800781 22.398438 22.398438 22.398438zM2.398438 16L0 16 0 24 8 24 8 21.601562 2.398438 21.601562zM7.199219 22.398438L7.199219 23.199219.800781 23.199219.800781 16.800781 1.601562 16.800781 1.601562 22.398438zM12 1.601562C10.015625 1.601562 8.398438 3.214844 8.398438 5.199219L8.398438 10C8.398438 10.660156 8.9375 11.199219 9.601562 11.199219 10.261719 11.199219 10.800781 10.660156 10.800781 10L10.800781 5.199219C10.800781 4.539062 11.339844 4 12 4 12.660156 4 13.199219 4.539062 13.199219 5.199219L13.199219 10C13.199219 10.660156 13.738281 11.199219 14.398438 11.199219 15.0625 11.199219 15.601562 10.660156 15.601562 10L15.601562 5.199219C15.601562 3.214844 13.984375 1.601562 12 1.601562zM14.800781 10C14.800781 10.222656 14.621094 10.398438 14.398438 10.398438 14.179688 10.398438 14 10.222656 14 10L14 5.199219C14 4.097656 13.101562 3.199219 12 3.199219 10.898438 3.199219 10 4.097656 10 5.199219L10 10C10 10.222656 9.820312 10.398438 9.601562 10.398438 9.378906 10.398438 9.199219 10.222656 9.199219 10L9.199219 5.199219C9.199219 3.65625 10.457031 2.398438 12 2.398438 13.542969 2.398438 14.800781 3.65625 14.800781 5.199219zM14.398438 12.800781C13.738281 12.800781 13.199219 13.339844 13.199219 14L13.199219 18.800781C13.199219 19.460938 12.660156 20 12 20 11.339844 20 10.800781 19.460938 10.800781 18.800781L10.800781 14C10.800781 13.339844 10.261719 12.800781 9.601562 12.800781 8.9375 12.800781 8.398438 13.339844 8.398438 14L8.398438 18.800781C8.398438 20.785156 10.015625 22.398438 12 22.398438 13.984375 22.398438 15.601562 20.785156 15.601562 18.800781L15.601562 14C15.601562 13.339844 15.0625 12.800781 14.398438 12.800781zM14.800781 18.800781C14.800781 20.34375 13.542969 21.601562 12 21.601562 10.457031 21.601562 9.199219 20.34375 9.199219 18.800781L9.199219 14C9.199219 13.777344 9.378906 13.601562 9.601562 13.601562 9.820312 13.601562 10 13.777344 10 14L10 18.800781C10 19.902344 10.898438 20.800781 12 20.800781 13.101562 20.800781 14 19.902344 14 18.800781L14 14C14 13.777344 14.179688 13.601562 14.398438 13.601562 14.621094 13.601562 14.800781 13.777344 14.800781 14zM18.613281 8.421875L16.917969 10.117188C16.761719 10.273438 16.761719 10.527344 16.917969 10.683594 16.996094 10.761719 17.097656 10.800781 17.199219 10.800781 17.300781 10.800781 17.40625 10.761719 17.484375 10.683594L19.179688 8.984375C19.335938 8.828125 19.335938 8.578125 19.179688 8.421875 19.023438 8.265625 18.769531 8.265625 18.613281 8.421875zM17.199219 12C17.199219 12.222656 17.378906 12.398438 17.601562 12.398438L20 12.398438C20.222656 12.398438 20.398438 12.222656 20.398438 12 20.398438 11.777344 20.222656 11.601562 20 11.601562L17.601562 11.601562C17.378906 11.601562 17.199219 11.777344 17.199219 12zM16.917969 13.882812L18.613281 15.578125C18.691406 15.65625 18.792969 15.695312 18.898438 15.695312 19 15.695312 19.101562 15.65625 19.179688 15.578125 19.335938 15.421875 19.335938 15.171875 19.179688 15.015625L17.484375 13.316406C17.328125 13.160156 17.074219 13.160156 16.917969 13.316406 16.761719 13.472656 16.761719 13.726562 16.917969 13.882812zM6.515625 13.316406L4.820312 15.015625C4.664062 15.171875 4.664062 15.421875 4.820312 15.578125 4.898438 15.65625 5 15.695312 5.101562 15.695312 5.207031 15.695312 5.308594 15.65625 5.386719 15.578125L7.082031 13.882812C7.238281 13.726562 7.238281 13.472656 7.082031 13.316406 6.925781 13.160156 6.671875 13.160156 6.515625 13.316406zM3.601562 12C3.601562 12.222656 3.777344 12.398438 4 12.398438L6.398438 12.398438C6.621094 12.398438 6.800781 12.222656 6.800781 12 6.800781 11.777344 6.621094 11.601562 6.398438 11.601562L4 11.601562C3.777344 11.601562 3.601562 11.777344 3.601562 12zM7.082031 10.117188L5.386719 8.421875C5.230469 8.265625 4.976562 8.265625 4.820312 8.421875 4.664062 8.578125 4.664062 8.828125 4.820312 8.984375L6.515625 10.683594C6.59375 10.761719 6.699219 10.800781 6.800781 10.800781 6.902344 10.800781 7.003906 10.761719 7.082031 10.683594 7.238281 10.527344 7.238281 10.273438 7.082031 10.117188zM7.082031 10.117188"/>
</svg>

<svg xmlns="http://www.w3.org/2000/svg" width="32" height="32" viewBox="0 0 24 24">
    <path d="M0 8h2.398V2.398H8V0H0zM.8.8h6.4v.802H1.601v5.597H.8zm0 0M16 0v2.398h5.602V8H24V0zm7.2 7.2h-.802V1.601h-5.597V.8h6.398zm0 0M21.602 21.602H16V24h8v-8h-2.398zm.796-4.801h.801v6.398h-6.398v-.8h5.597zm0 0M2.398 16H0v8h8v-2.398H2.398zM7.2 22.398v.801H.801v-6.398h.8v5.597zm0 0M12 1.602a3.604 3.604 0 0 0-3.602 3.597V10a1.202 1.202 0 0 0 2.402 0V5.2c0-.66.54-1.2 1.2-1.2.66 0 1.2.54 1.2 1.2V10a1.202 1.202 0 0 0 2.402 0V5.2A3.604 3.604 0 0 0 12 1.601zM14.8 10c0 .223-.179.398-.402.398A.398.398 0 0 1 14 10V5.2c0-1.102-.898-2-2-2-1.102 0-2 .898-2 2V10c0 .223-.18.398-.398.398A.398.398 0 0 1 9.199 10V5.2c0-1.544 1.258-2.802 2.801-2.802 1.543 0 2.8 1.258 2.8 2.801zm0 0M14.398 12.8c-.66 0-1.199.54-1.199 1.2v4.8c0 .66-.539 1.2-1.199 1.2s-1.2-.54-1.2-1.2V14a1.202 1.202 0 0 0-2.402 0v4.8A3.604 3.604 0 0 0 12 22.399a3.604 3.604 0 0 0 3.602-3.597V14c0-.66-.54-1.2-1.204-1.2zm.403 6c0 1.544-1.258 2.802-2.801 2.802A2.806 2.806 0 0 1 9.2 18.8V14c0-.223.179-.398.402-.398.218 0 .398.175.398.398v4.8c0 1.102.898 2 2 2 1.102 0 2-.898 2-2V14c0-.223.18-.398.398-.398.223 0 .403.175.403.398zm0 0M18.613 8.422l-1.695 1.695a.4.4 0 0 0 .566.567l1.696-1.7a.396.396 0 0 0 0-.562.4.4 0 0 0-.567 0zm0 0M17.2 12c0 .223.179.398.402.398H20a.395.395 0 0 0 .398-.398.395.395 0 0 0-.398-.398h-2.398a.398.398 0 0 0-.403.398zm0 0M16.918 13.883l1.695 1.695a.399.399 0 0 0 .567 0 .396.396 0 0 0 0-.562l-1.696-1.7a.4.4 0 0 0-.566.567zm0 0M6.516 13.316l-1.696 1.7a.396.396 0 0 0 0 .562.399.399 0 0 0 .566 0l1.696-1.695a.4.4 0 0 0-.566-.567zm0 0M3.602 12c0 .223.175.398.398.398h2.398a.398.398 0 1 0 0-.796H4a.395.395 0 0 0-.398.398zm0 0M7.082 10.117L5.387 8.422a.4.4 0 0 0-.567 0 .396.396 0 0 0 0 .562l1.696 1.7a.405.405 0 0 0 .285.117.4.4 0 0 0 .281-.684zm0 0"/>
</svg>
